libs/ui/packages/crypto-icons/src/svg/SUMO.svg

<svg width="24" height="24" viewBox="0 0 24 24" fill="none">
<path d="M13.5458 6.813C16.0988 9.4875 16.7467 9.96 17.367 10.1302C15.2108 9.86025 13.9943 9.70725 11.9625 8.64075L10.68 10.1332L18.75 11.925C16.2255 14.0715 15.132 15.2153 13.5458 17.1855H10.4925C9.15075 15.222 8.256 14.5845 6.5325 13.7902C8.826 14.0017 10.101 14.1427 11.9625 15.2452L13.3583 13.6777L5.25 11.925C7.1355 10.371 8.23275 9.3345 10.4918 6.813H13.5458ZM10.68 6.44025C11.3775 5.5815 11.6625 5.16375 12.0375 4.5C12.405 5.184 12.6892 5.60625 13.3575 6.44025H10.68ZM13.3575 17.5597C12.6592 18.4185 12.3735 18.8363 12 19.5C11.6325 18.816 11.3475 18.3938 10.68 17.5597H13.3575Z" fill="#2D9CDB"/>
</svg>

<svg width="24" height="24" viewBox="0 0 24 24" fill="none"><path fill="#2d9cdb" d="M13.546 6.813c2.553 2.675 3.2 3.147 3.821 3.317-2.156-.27-3.373-.423-5.405-1.49l-1.282 1.493 8.07 1.792c-2.524 2.146-3.618 3.29-5.204 5.26h-3.053c-1.342-1.963-2.237-2.6-3.96-3.395 2.293.212 3.568.353 5.43 1.455l1.395-1.567-8.108-1.753c1.886-1.554 2.983-2.59 5.242-5.112zM10.68 6.44c.697-.859.982-1.276 1.358-1.94.367.684.651 1.106 1.32 1.94zm2.678 11.12c-.699.859-.985 1.276-1.358 1.94-.367-.684-.652-1.106-1.32-1.94z"/></svg>
